images_elementary_svg/cmd/sc_formatungroup.svg

<svg height="16" width="16" xmlns="http://www.w3.org/2000/svg" xmlns:xlink="http://www.w3.org/1999/xlink"><linearGradient id="a" gradientTransform="matrix(.12012014 0 0 .12005232 4.061558 15.613937)" gradientUnits="userSpaceOnUse" x1="51.798126" x2="51.798126" y1="-98.562508" y2="-61.562508"><stop offset="0" stop-color="#fff"/><stop offset=".49771357" stop-color="#fff" stop-opacity=".235294"/><stop offset=".74999994" stop-color="#fff" stop-opacity=".156863"/><stop offset="1" stop-color="#fff" stop-opacity=".392157"/></linearGradient><linearGradient id="b" gradientUnits="userSpaceOnUse" x1="11.82545732024" x2="11.82545732024" y1="2.47257105565" y2="9.50679779299"><stop offset="0" stop-color="#64baff"/><stop offset="1" stop-color="#3689e6"/></linearGradient><linearGradient id="c" gradientUnits="userSpaceOnUse" x1="6.50125055892" x2="6.50125055892" y1="7.99999977593" y2="10.99999972033"><stop offset="0" stop-color="#fff"/><stop offset="0" stop-color="#fff" stop-opacity=".235294"/><stop offset="1" stop-color="#fff" stop-opacity=".156863"/><stop offset="1" stop-color="#fff" stop-opacity=".392157"/></linearGradient><linearGradient id="d" gradientUnits="userSpaceOnUse" x1="7.32114629767" x2="7.32114629767" y1="6.54913727897" y2="12.43140907258"><stop offset="0" stop-color="#fafafa"/><stop offset="1" stop-color="#d4d4d4"/></linearGradient><path d="m11.5 6v7" fill="none" opacity=".6" stroke="#abacae"/><path d="m3.0000001 4.4999998h6.9999999" fill="none" opacity=".6" stroke="#abacae"/><rect fill="url(#d)" height="6" rx=".5" width="6" x="3.5" y="6.5"/><path d="m4.501251 7.498745h4v4h-4z" fill="none" stroke="url(#c)" stroke-linecap="square"/><rect fill="none" height="6" opacity=".5" rx=".5" stroke="#555761" stroke-linecap="round" stroke-linejoin="round" width="6" x="3.5" y="6.5"/><path d="m.50000022 13.5h1.99999978v2h-1.99999978z" fill="#fafafa" stroke="#7e8087" stroke-linecap="round" stroke-linejoin="round" stroke-opacity=".949458"/><path d="m3.0000001 14.5h6.9999999" fill="none" opacity=".6" stroke="#abacae"/><path d="m1.5000001 6v7" fill="none" opacity=".6" stroke="#abacae"/><path d="m10.5 13.5h2v2h-2z" fill="#fafafa" stroke="#7e8087" stroke-linecap="round" stroke-linejoin="round" stroke-opacity=".949458"/><path d="m.50000012 3.4999999h1.99999998v2h-1.99999998z" fill="#fafafa" stroke="#7e8087" stroke-linecap="round" stroke-linejoin="round" stroke-opacity=".949458"/><path d="m13.499999 6a3.5 3.5000009 0 1 1 -7 0 3.5 3.5000009 0 1 1 7 0z" fill="url(#b)"/><g stroke-linecap="round" stroke-linejoin="round"><path d="m12.499994 6.002247a2.4999999 2.4985886 0 1 1 -4.999999 0 2.4999999 2.4985886 0 1 1 4.999999 0z" fill="none" opacity=".5" stroke="url(#a)"/><path d="m13.499999 5.9999996a3.5 3.5000017 0 1 1 -7 0 3.5 3.5000017 0 1 1 7 0z" fill="none" opacity=".5" stroke="#002e99"/><path d="m4.5 9.5h2v2h-2z" fill="#fafafa" stroke="#7e8087" stroke-opacity=".949458"/></g><path d="m7 10.5h7" fill="none" opacity=".6" stroke="#abacae"/><path d="m5.5 2.0000002v6.9999998" fill="none" opacity=".6" stroke="#abacae"/><path d="m13.5 9.5h2v2h-2z" fill="#fafafa" stroke="#7e8087" stroke-linecap="round" stroke-linejoin="round" stroke-opacity=".949458"/><path d="m4.5.4999999h2v2h-2z" fill="#fafafa" stroke="#7e8087" stroke-linecap="round" stroke-linejoin="round" stroke-opacity=".949458"/><path d="m15.5 2.4999998h-2v-2h2z" fill="#fafafa" stroke="#7e8087" stroke-linecap="round" stroke-linejoin="round" stroke-opacity=".949458"/><path d="m13 1.4999998h-6" fill="none" opacity=".6" stroke="#abacae"/><path d="m14.5 9v-5.9999999" fill="none" opacity=".6" stroke="#abacae"/></svg>

<?xml version="1.0" encoding="UTF-8" standalone="no"?>
<svg
   xmlns:dc="http://purl.org/dc/elements/1.1/"
   xmlns:cc="http://creativecommons.org/ns#"
   xmlns:rdf="http://www.w3.org/1999/02/22-rdf-syntax-ns#"
   xmlns:svg="http://www.w3.org/2000/svg"
   xmlns="http://www.w3.org/2000/svg"
   xmlns:xlink="http://www.w3.org/1999/xlink"
   xmlns:sodipodi="http://sodipodi.sourceforge.net/DTD/sodipodi-0.dtd"
   xmlns:inkscape="http://www.inkscape.org/namespaces/inkscape"
   version="1.1"
   width="16"
   height="16"
   id="svg7435"
   sodipodi:docname="sc_formatungroup.svg"
   inkscape:version="0.92.3 (unknown)"
   inkscape:export-filename="/home/rizmut/Dokumen/Rizmut/Github/libreoffice-style-elementary/images_elementary/cmd/sc_formatungroup.png"
   inkscape:export-xdpi="96"
   inkscape:export-ydpi="96">
  <sodipodi:namedview
     pagecolor="#ffffff"
     bordercolor="#666666"
     borderopacity="1"
     objecttolerance="10"
     gridtolerance="10"
     guidetolerance="10"
     inkscape:pageopacity="0"
     inkscape:pageshadow="2"
     inkscape:window-width="640"
     inkscape:window-height="480"
     id="namedview46"
     showgrid="false"
     inkscape:zoom="29.625"
     inkscape:cx="1.0126582"
     inkscape:cy="8"
     inkscape:current-layer="svg7435" />
  <defs
     id="defs7437">
    <linearGradient
       id="linearGradient982">
      <stop
         id="stop974"
         style="stop-color:#ffffff;stop-opacity:1"
         offset="0" />
      <stop
         id="stop976"
         style="stop-color:#ffffff;stop-opacity:0.23529412"
         offset="0" />
      <stop
         id="stop978"
         style="stop-color:#ffffff;stop-opacity:0.15686275"
         offset="1" />
      <stop
         id="stop980"
         style="stop-color:#ffffff;stop-opacity:0.39215687"
         offset="1" />
    </linearGradient>
    <linearGradient
       id="linearGradient1847">
      <stop
         id="stop1839"
         style="stop-color:#ffffff;stop-opacity:1"
         offset="0" />
      <stop
         id="stop1841"
         style="stop-color:#ffffff;stop-opacity:0.23529412"
         offset="0.49771357" />
      <stop
         id="stop1843"
         style="stop-color:#ffffff;stop-opacity:0.15686275"
         offset="0.74999994" />
      <stop
         id="stop1845"
         style="stop-color:#ffffff;stop-opacity:0.39215687"
         offset="1" />
    </linearGradient>
    <linearGradient
       id="linearGradient874"
       gradientTransform="matrix(0.48571543,0,0,0.45629666,-34.78968,-5.734851)"
       gradientUnits="userSpaceOnUse"
       x1="25.132275"
       x2="25.132275"
       y1="0.98520601"
       y2="47.013336">
      <stop
         style="stop-color:#fafafa;stop-opacity:1"
         offset="0"
         stop-color="#f4f4f4"
         id="stop870" />
      <stop
         style="stop-color:#d4d4d4;stop-opacity:1"
         offset="1"
         stop-color="#dbdbdb"
         id="stop872" />
    </linearGradient>
    <linearGradient
       id="linearGradient947-5">
      <stop
         offset="0"
         style="stop-color:#64baff;stop-opacity:1"
         id="stop943-6" />
      <stop
         offset="1"
         style="stop-color:#3689e6;stop-opacity:1"
         id="stop945-2" />
    </linearGradient>
    <linearGradient
       xlink:href="#linearGradient1847"
       id="linearGradient1697-2-4"
       gradientUnits="userSpaceOnUse"
       gradientTransform="matrix(0.12012014,0,0,0.12005232,4.061558,15.613937)"
       x1="51.798126"
       y1="-98.562508"
       x2="51.798126"
       y2="-61.562508" />
    <linearGradient
       xlink:href="#linearGradient947-5"
       id="linearGradient1695-1-0"
       gradientUnits="userSpaceOnUse"
       gradientTransform="matrix(0.33492817,0,0,0.33492817,2.799044,16.617216)"
       x1="26.950296"
       y1="-42.231876"
       x2="26.950296"
       y2="-21.229681" />
    <linearGradient
       xlink:href="#linearGradient982"
       id="linearGradient1693-4-2-1"
       gradientUnits="userSpaceOnUse"
       gradientTransform="matrix(0.10810811,0,0,0.10810811,3.9066566,6.9041512)"
       x1="23.99999"
       y1="10.136601"
       x2="23.99999"
       y2="37.8866" />
    <linearGradient
       xlink:href="#linearGradient874"
       id="linearGradient878-75-0"
       gradientUnits="userSpaceOnUse"
       gradientTransform="matrix(0.31578944,0,0,0.31578944,2.7105273,5.7105181)"
       x1="14.600296"
       y1="2.6556277"
       x2="14.600296"
       y2="21.282824" />
  </defs>
  <metadata
     id="metadata7440">
    <rdf:RDF>
      <cc:Work
         rdf:about="">
        <dc:format>image/svg+xml</dc:format>
        <dc:type
           rdf:resource="http://purl.org/dc/dcmitype/StillImage" />
        <dc:title></dc:title>
      </cc:Work>
    </rdf:RDF>
  </metadata>
  <path
     id="path1425-8-3-1"
     d="m 11.5,6 v 7"
     style="opacity:0.6;fill:none;stroke:#abacae;stroke-width:1px;stroke-linecap:butt;stroke-linejoin:miter;stroke-opacity:1" />
  <path
     id="path1425-8-7"
     d="M 3.0000001,4.4999998 H 10"
     style="opacity:0.6;fill:none;stroke:#abacae;stroke-width:1px;stroke-linecap:butt;stroke-linejoin:miter;stroke-opacity:1" />
  <rect
     style="color:#000000;display:inline;overflow:visible;visibility:visible;opacity:1;fill:url(#linearGradient878-75-0);fill-opacity:1;fill-rule:nonzero;stroke:none;stroke-width:0.99999988;marker:none;enable-background:accumulate"
     id="rect5505-21-8-4-7-5"
     y="6.5"
     x="3.5"
     ry="0.5"
     rx="0.5"
     height="6"
     width="6" />
  <rect
     ry="0"
     rx="0"
     style="opacity:1;fill:none;stroke:url(#linearGradient1693-4-2-1);stroke-width:1;stroke-linecap:square;stroke-linejoin:miter;stroke-miterlimit:4;stroke-dasharray:none;stroke-dashoffset:0;stroke-opacity:1"
     id="rect6741-9-5-1-5"
     y="7.498745"
     x="4.5012512"
     height="4"
     width="4" />
  <rect
     style="color:#000000;display:inline;overflow:visible;visibility:visible;opacity:0.5;fill:none;stroke:#555761;stroke-width:0.99999994;stroke-linecap:round;stroke-linejoin:round;stroke-miterlimit:4;stroke-dasharray:none;stroke-dashoffset:0;stroke-opacity:1;marker:none;enable-background:accumulate"
     id="rect5505-21-8-1-25-1-4"
     y="6.5"
     x="3.5"
     ry="0.5"
     rx="0.5"
     height="6"
     width="6" />
  <path
     id="path18105-5-0-5-6-3-7"
     d="M 0.50000022,13.5 H 2.5 v 2 H 0.50000022 Z"
     style="opacity:1;fill:#fafafa;fill-opacity:1;stroke:#7e8087;stroke-width:1.00000024;stroke-linecap:round;stroke-linejoin:round;stroke-miterlimit:4;stroke-opacity:0.94945846" />
  <path
     id="path1425-8"
     d="M 3.0000001,14.5 H 10"
     style="opacity:0.6;fill:none;stroke:#abacae;stroke-width:1px;stroke-linecap:butt;stroke-linejoin:miter;stroke-opacity:1" />
  <path
     id="path1425-8-3"
     d="m 1.5000001,6 v 7"
     style="opacity:0.6;fill:none;stroke:#abacae;stroke-width:0.99999988px;stroke-linecap:butt;stroke-linejoin:miter;stroke-opacity:1" />
  <path
     id="path18105-5-0-5-6-3-7-9"
     d="m 10.5,13.5 h 2 v 2 h -2 z"
     style="opacity:1;fill:#fafafa;fill-opacity:1;stroke:#7e8087;stroke-width:1.00000024;stroke-linecap:round;stroke-linejoin:round;stroke-miterlimit:4;stroke-opacity:0.94945846" />
  <path
     id="path18105-5-0-5-6-3-7-9-1-7"
     d="M 0.50000012,3.4999999 H 2.5000001 v 2 H 0.50000012 Z"
     style="opacity:1;fill:#fafafa;fill-opacity:1;stroke:#7e8087;stroke-width:1.00000024;stroke-linecap:round;stroke-linejoin:round;stroke-miterlimit:4;stroke-opacity:0.94945846" />
  <path
     d="m 13.499999,6 a 3.5,3.5000009 0 1 1 -7,0 3.5,3.5000009 0 1 1 7,0 z"
     id="path8335-9-5-7"
     style="opacity:1;vector-effect:none;fill:url(#linearGradient1695-1-0);fill-opacity:1;stroke:none;stroke-width:0.99999982;stroke-linecap:butt;stroke-linejoin:miter;stroke-miterlimit:4;stroke-dasharray:none;stroke-dashoffset:0;stroke-opacity:1;marker:none" />
  <path
     d="m 12.499994,6.002247 a 2.4999999,2.4985886 0 1 1 -4.999999,0 2.4999999,2.4985886 0 1 1 4.999999,0 z"
     id="path8339-9-6"
     style="opacity:0.5;vector-effect:none;fill:none;fill-opacity:1;stroke:url(#linearGradient1697-2-4);stroke-width:0.99999982;stroke-linecap:round;stroke-linejoin:round;stroke-miterlimit:4;stroke-dasharray:none;stroke-dashoffset:0;stroke-opacity:1" />
  <path
     d="m 13.499999,5.9999996 a 3.5,3.5000017 0 1 1 -7,0 3.5,3.5000017 0 1 1 7,0 z"
     id="path8335-7-5"
     style="opacity:0.5;vector-effect:none;fill:none;fill-opacity:1;stroke:#002e99;stroke-width:0.99999994;stroke-linecap:round;stroke-linejoin:round;stroke-miterlimit:4;stroke-dasharray:none;stroke-dashoffset:0;stroke-opacity:1;marker:none" />
  <path
     id="path18105-5-0-5-6-3-7-6"
     d="m 4.5,9.5 h 2 v 2 h -2 z"
     style="opacity:1;fill:#fafafa;fill-opacity:1;stroke:#7e8087;stroke-width:1.00000024;stroke-linecap:round;stroke-linejoin:round;stroke-miterlimit:4;stroke-opacity:0.94945846" />
  <path
     id="path1425-8-1"
     d="m 7,10.5 h 7"
     style="opacity:0.6;fill:none;stroke:#abacae;stroke-width:1px;stroke-linecap:butt;stroke-linejoin:miter;stroke-opacity:1" />
  <path
     id="path1425-8-3-0"
     d="M 5.5,2.0000002 V 9"
     style="opacity:0.6;fill:none;stroke:#abacae;stroke-width:0.99999988px;stroke-linecap:butt;stroke-linejoin:miter;stroke-opacity:1" />
  <path
     id="path18105-5-0-5-6-3-7-9-6"
     d="m 13.5,9.5 h 2 v 2 h -2 z"
     style="opacity:1;fill:#fafafa;fill-opacity:1;stroke:#7e8087;stroke-width:1.00000024;stroke-linecap:round;stroke-linejoin:round;stroke-miterlimit:4;stroke-opacity:0.94945846" />
  <path
     id="path18105-5-0-5-6-3-7-9-1-7-3"
     d="m 4.5,0.4999999 h 2 v 2 h -2 z"
     style="opacity:1;fill:#fafafa;fill-opacity:1;stroke:#7e8087;stroke-width:1.00000024;stroke-linecap:round;stroke-linejoin:round;stroke-miterlimit:4;stroke-opacity:0.94945846" />
  <path
     id="path18105-5-0-5-6-3-7-6-2"
     d="m 15.5,2.4999998 h -2 v -2 h 2 z"
     style="opacity:1;fill:#fafafa;fill-opacity:1;stroke:#7e8087;stroke-width:1.00000024;stroke-linecap:round;stroke-linejoin:round;stroke-miterlimit:4;stroke-opacity:0.94945846" />
  <path
     id="path1425-8-1-0"
     d="M 13,1.4999998 H 7"
     style="opacity:0.6;fill:none;stroke:#abacae;stroke-width:0.99999994px;stroke-linecap:butt;stroke-linejoin:miter;stroke-opacity:1" />
  <path
     id="path1425-8-3-0-6"
     d="M 14.5,9 V 3.0000001"
     style="opacity:0.6;fill:none;stroke:#abacae;stroke-width:0.99999988px;stroke-linecap:butt;stroke-linejoin:miter;stroke-opacity:1" />
</svg>
